public/sprites/users.svg

<svg width="0" height="0" class="hidden"><symbol viewBox="0 0 24 24" fill="none" xmlns="http://www.w3.org/2000/svg" id="user-01"><g id="user-01"><path id="Icon" d="M20 21C20 19.6044 20 18.9067 19.8278 18.3389C19.44 17.0605 18.4395 16.06 17.1611 15.6722C16.5933 15.5 15.8956 15.5 14.5 15.5H9.5C8.10444 15.5 7.40665 15.5 6.83886 15.6722C5.56045 16.06 4.56004 17.0605 4.17224 18.3389C4 18.9067 4 19.6044 4 21M16.5 7.5C16.5 9.98528 14.4853 12 12 12C9.51472 12 7.5 9.98528 7.5 7.5C7.5 5.01472 9.51472 3 12 3C14.4853 3 16.5 5.01472 16.5 7.5Z" stroke="currentColor" stroke-width="2" stroke-linecap="round" stroke-linejoin="round"></path></g></symbol><symbol viewBox="0 0 24 24" fill="none" xmlns="http://www.w3.org/2000/svg" id="user-circle"><g id="user-circle"><path id="Icon" d="M5.3163 19.4384C5.92462 18.0052 7.34492 17 9 17H15C16.6551 17 18.0754 18.0052 18.6837 19.4384M16 9.5C16 11.7091 14.2091 13.5 12 13.5C9.79086 13.5 8 11.7091 8 9.5C8 7.29086 9.79086 5.5 12 5.5C14.2091 5.5 16 7.29086 16 9.5ZM22 12C22 17.5228 17.5228 22 12 22C6.47715 22 2 17.5228 2 12C2 6.47715 6.47715 2 12 2C17.5228 2 22 6.47715 22 12Z" stroke="currentColor" stroke-width="2" stroke-linecap="round" stroke-linejoin="round"></path></g></symbol><symbol viewBox="0 0 24 24" fill="none" xmlns="http://www.w3.org/2000/svg" id="user-plus-01"><g id="user-plus-01"><path id="Icon" d="M12 15.5H7.5C6.10444 15.5 5.40665 15.5 4.83886 15.6722C3.56045 16.06 2.56004 17.0605 2.17224 18.3389C2 18.9067 2 19.6044 2 21M19 21V15M16 18H22M14.5 7.5C14.5 9.98528 12.4853 12 10 12C7.51472 12 5.5 9.98528 5.5 7.5C5.5 5.01472 7.51472 3 10 3C12.4853 3 14.5 5.01472 14.5 7.5Z" stroke="currentColor" stroke-width="2" stroke-linecap="round" stroke-linejoin="round"></path></g></symbol><symbol viewBox="0 0 24 24" fill="none" xmlns="http://www.w3.org/2000/svg" id="user"><path d="M20 21C20 19.6044 20 18.9067 19.8278 18.3389C19.44 17.0605 18.4395 16.06 17.1611 15.6722C16.5933 15.5 15.8956 15.5 14.5 15.5H9.5C8.10444 15.5 7.40665 15.5 6.83886 15.6722C5.56045 16.06 4.56004 17.0605 4.17224 18.3389C4 18.9067 4 19.6044 4 21M16.5 7.5C16.5 9.98528 14.4853 12 12 12C9.51472 12 7.5 9.98528 7.5 7.5C7.5 5.01472 9.51472 3 12 3C14.4853 3 16.5 5.01472 16.5 7.5Z" stroke="currentColor" stroke-width="2" stroke-linecap="round" stroke-linejoin="round"></path></symbol><symbol viewBox="0 0 16 16" fill="none" xmlns="http://www.w3.org/2000/svg" id="users-01"><g id="users-01"><path id="Icon" d="M14.6666 14V12.6667C14.6666 11.4241 13.8167 10.38 12.6666 10.084M10.3333 2.19384C11.3105 2.58943 11.9999 3.54754 11.9999 4.66667C11.9999 5.78579 11.3105 6.7439 10.3333 7.13949M11.3333 14C11.3333 12.7575 11.3333 12.1362 11.1303 11.6462C10.8596 10.9928 10.3405 10.4736 9.68707 10.203C9.19702 10 8.57576 10 7.33325 10H5.33325C4.09074 10 3.46949 10 2.97943 10.203C2.32602 10.4736 1.80689 10.9928 1.53624 11.6462C1.33325 12.1362 1.33325 12.7575 1.33325 14M8.99992 4.66667C8.99992 6.13943 7.80601 7.33333 6.33325 7.33333C4.86049 7.33333 3.66659 6.13943 3.66659 4.66667C3.66659 3.19391 4.86049 2 6.33325 2C7.80601 2 8.99992 3.19391 8.99992 4.66667Z" stroke="currentColor" stroke-width="1.5" stroke-linecap="round" stroke-linejoin="round"></path></g></symbol><symbol viewBox="0 0 24 24" fill="none" xmlns="http://www.w3.org/2000/svg" id="users-plus"><g id="users-plus"><path id="Icon" d="M19 21V15M16 18H22M12 15H8C6.13623 15 5.20435 15 4.46927 15.3045C3.48915 15.7105 2.71046 16.4892 2.30448 17.4693C2 18.2044 2 19.1362 2 21M15.5 3.29076C16.9659 3.88415 18 5.32131 18 7C18 8.67869 16.9659 10.1159 15.5 10.7092M13.5 7C13.5 9.20914 11.7091 11 9.5 11C7.29086 11 5.5 9.20914 5.5 7C5.5 4.79086 7.29086 3 9.5 3C11.7091 3 13.5 4.79086 13.5 7Z" stroke="currentColor" stroke-width="2" stroke-linecap="round" stroke-linejoin="round"></path></g></symbol></svg>

<svg width="0" height="0"><symbol xmlns="http://www.w3.org/2000/svg" id="user-01" fill="none" viewBox="0 0 24 24"><path id="Icon" stroke="currentColor" stroke-linecap="round" stroke-linejoin="round" stroke-width="2" d="M20 21c0-1.396 0-2.093-.172-2.661a4 4 0 0 0-2.667-2.667c-.568-.172-1.265-.172-2.661-.172h-5c-1.396 0-2.093 0-2.661.172a4 4 0 0 0-2.667 2.667C4 18.907 4 19.604 4 21M16.5 7.5a4.5 4.5 0 1 1-9 0 4.5 4.5 0 0 1 9 0Z"/></symbol><symbol xmlns="http://www.w3.org/2000/svg" id="user-circle" fill="none" viewBox="0 0 24 24"><path stroke="currentColor" stroke-linecap="round" stroke-linejoin="round" stroke-width="2" d="M5.316 19.438A4.001 4.001 0 0 1 9 17h6a4.001 4.001 0 0 1 3.684 2.438M16 9.5a4 4 0 1 1-8 0 4 4 0 0 1 8 0Zm6 2.5c0 5.523-4.477 10-10 10S2 17.523 2 12 6.477 2 12 2s10 4.477 10 10Z"/></symbol><symbol xmlns="http://www.w3.org/2000/svg" id="user-plus-01" fill="none" viewBox="0 0 24 24"><path stroke="currentColor" stroke-linecap="round" stroke-linejoin="round" stroke-width="2" d="M12 15.5H7.5c-1.396 0-2.093 0-2.661.172a4 4 0 0 0-2.667 2.667C2 18.907 2 19.604 2 21m17 0v-6m-3 3h6M14.5 7.5a4.5 4.5 0 1 1-9 0 4.5 4.5 0 0 1 9 0Z"/></symbol><symbol xmlns="http://www.w3.org/2000/svg" id="user" fill="none" viewBox="0 0 24 24"><path stroke="currentColor" stroke-linecap="round" stroke-linejoin="round" stroke-width="2" d="M20 21c0-1.396 0-2.093-.172-2.661a4 4 0 0 0-2.667-2.667c-.568-.172-1.265-.172-2.661-.172h-5c-1.396 0-2.093 0-2.661.172a4 4 0 0 0-2.667 2.667C4 18.907 4 19.604 4 21M16.5 7.5a4.5 4.5 0 1 1-9 0 4.5 4.5 0 0 1 9 0Z"/></symbol><symbol xmlns="http://www.w3.org/2000/svg" id="users-01" fill="none" viewBox="0 0 16 16"><path stroke="currentColor" stroke-linecap="round" stroke-linejoin="round" stroke-width="1.5" d="M14.667 14v-1.333c0-1.243-.85-2.287-2-2.583m-2.334-7.89a2.668 2.668 0 0 1 0 4.945m1 6.861c0-1.242 0-1.864-.203-2.354a2.667 2.667 0 0 0-1.443-1.443C9.197 10 8.576 10 7.333 10h-2c-1.242 0-1.864 0-2.354.203-.653.27-1.172.79-1.443 1.443-.203.49-.203 1.111-.203 2.354M9 4.667a2.667 2.667 0 1 1-5.333 0 2.667 2.667 0 0 1 5.333 0Z"/></symbol><symbol xmlns="http://www.w3.org/2000/svg" id="users-plus" fill="none" viewBox="0 0 24 24"><path stroke="currentColor" stroke-linecap="round" stroke-linejoin="round" stroke-width="2" d="M19 21v-6m-3 3h6m-10-3H8c-1.864 0-2.796 0-3.53.305a4 4 0 0 0-2.166 2.164C2 18.204 2 19.136 2 21M15.5 3.29a4.001 4.001 0 0 1 0 7.42M13.5 7a4 4 0 1 1-8 0 4 4 0 0 1 8 0Z"/></symbol></svg>
